;FLAVOR:Mach3
;TIME:13136
;MINX:363.746
;MINY:288.858
;MINZ:1.2
;MAXX:438.941
;MAXY:364.052
;MAXZ:69.6
;Generated with Cura_SteamEngine 5.4.0
M104 S215
M109 S215
M82 ;absolute extrusion mode
G000
G017
G21
G40
G49
G80
G90
G52 X0 Y0
G54
(PLATE AT Z _)
M101 (ARGON HIGH)
G92 A0
G92 A0
;LAYER_COUNT:58
;LAYER:0
M107
;MESH:simplified piston.STL
G0 F3600 X372.265 Y346.873 Z1.2
;TYPE:FILL
G1 F600 X380.974 Y355.582 A6.14467
G0 F3600 X373.251 Y348.294
G1 F600 X375.832 Y351.261 A8.10661
G1 X378.729 Y353.931 A10.07215
G1 X381.862 Y356.235 A12.01237
G1 X384.661 Y357.854 A13.62557
G1 X370.004 Y343.198 A23.96652
G1 X369.164 Y341.643 A24.84827
G1 X368.684 Y340.463 A25.48382
G1 X387.331 Y359.111 A38.64063
G1 X388.881 Y359.79 A39.48488
G1 X389.673 Y360.038 A39.89893
G1 X367.703 Y338.068 A55.39995
G1 X367.146 Y336.097 A56.42179
G1 X391.732 Y360.683 A73.76855
G1 X392.617 Y360.96 A74.2312
G1 X393.618 Y361.154 A74.73989
G1 X366.604 Y334.141 A93.79937
G1 X366.321 Y332.444 A94.6577
G1 X395.374 Y361.497 A115.15616
G1 X396.471 Y361.711 A115.71377
G1 X397.05 Y361.758 A116.00359
G1 X366.038 Y330.746 A137.88423
G1 X365.975 Y330.366 A138.0764
G1 X365.911 Y329.205 A138.6565
G1 X398.591 Y361.885 A161.71401
G1 X400.133 Y362.013 A162.48596
G1 X365.829 Y327.709 A186.68929
G1 X365.76 Y326.443 A187.32183
G1 X365.771 Y326.237 A187.42475
G1 X401.535 Y362.001 A212.65819
G1 X402.912 Y361.964 A213.34542
G1 X365.845 Y324.897 A239.4982
G1 X365.919 Y323.557 A240.16774
G1 X404.29 Y361.927 A267.2402
G1 X405.532 Y361.755 A267.86575
G1 X366.022 Y322.245 A295.74219
G1 X366.224 Y321.033 A296.3552
G1 X406.774 Y361.583 A324.96542
G1 X408.016 Y361.41 A325.59104
G1 X366.426 Y319.821 A354.93467
G1 X366.629 Y318.609 A355.54777
G1 X409.158 Y361.139 A385.55463
G1 X410.287 Y360.853 A386.13568
G1 X366.947 Y317.513 A416.71439
G1 X367.259 Y316.411 A417.28579
G1 X411.415 Y360.567 A448.44023
G1 X411.992 Y360.422 A448.73705
G1 X412.495 Y360.233 A449.00513
G1 X367.57 Y315.308 A480.70214
G1 X367.691 Y314.883 A480.9226
G1 X367.942 Y314.265 A481.25538
G1 X413.524 Y359.848 A513.4163
G1 X414.553 Y359.462 A513.9646
G1 X368.351 Y313.26 A546.5626
G1 X368.76 Y312.255 A547.10393
G1 X415.587 Y359.082 A580.14291
G1 X416.526 Y358.607 A580.66791
G1 X369.169 Y311.25 A614.08083
G1 X369.666 Y310.332 A614.60163
G1 X417.465 Y358.132 A648.32676
G1 X418.405 Y357.658 A648.85198
G1 X370.162 Y309.415 A682.89002
G1 X370.659 Y308.497 A683.41083
G1 X419.327 Y357.165 A717.74873
G1 X420.181 Y356.605 A718.25822
G1 X371.175 Y307.599 A752.8346
G1 X371.755 Y306.764 A753.34182
G1 X421.036 Y356.046 A788.11258
G1 X421.891 Y355.487 A788.62222
G1 X372.334 Y305.929 A823.58772
G1 X372.913 Y305.094 A824.09465
G1 X422.718 Y354.899 A859.23477
G1 X423.494 Y354.261 A859.73597
G1 X373.523 Y304.29 A894.99321
G1 X374.181 Y303.534 A895.49323
G1 X424.271 Y353.624 A930.83443
G1 X425.046 Y352.985 A931.33556
G1 X374.84 Y302.779 A966.7586
G1 X375.499 Y302.023 A967.25895
G1 X425.786 Y352.311 A1002.7395
G1 X426.483 Y351.593 A1003.23874
G1 X376.194 Y301.305 A1038.71999
G1 X376.931 Y300.627 A1039.2196
G1 X427.18 Y350.876 A1074.67299
G1 X427.877 Y350.159 A1075.17186
G1 X377.667 Y299.949 A1110.59773
G1 X378.404 Y299.272 A1111.097
G1 X428.532 Y349.4 A1146.46502
G1 X429.152 Y348.605 A1146.968
G1 X379.186 Y298.639 A1182.22171
G1 X380.001 Y298.04 A1182.72632
G1 X429.771 Y347.81 A1217.84175
G1 X430.39 Y347.015 A1218.34442
G1 X380.817 Y297.442 A1253.32085
G1 X381.632 Y296.843 A1253.82547
G1 X430.956 Y346.166 A1288.62586
G1 X431.494 Y345.291 A1289.13831
G1 X382.503 Y296.299 A1323.70446
G1 X383.4 Y295.782 A1324.22099
G1 X432.033 Y344.415 A1358.5342
G1 X432.571 Y343.54 A1359.04665
G1 X384.296 Y295.265 A1393.10727
G1 X385.193 Y294.747 A1393.62405
G1 X433.039 Y342.593 A1427.38198
G1 X433.492 Y341.632 A1427.91203
G1 X386.167 Y294.307 A1461.30237
G1 X387.15 Y293.875 A1461.83806
G1 X433.946 Y340.672 A1494.85552
G1 X434.399 Y339.71 A1495.38601
G1 X388.133 Y293.445 A1528.02882
G1 X388.886 Y293.114 A1528.43919
G1 X389.138 Y293.035 A1528.57094
G1 X434.748 Y338.645 A1560.75126
G1 X435.109 Y337.592 A1561.30662
G1 X390.215 Y292.698 A1592.98176
G1 X391.293 Y292.361 A1593.54525
G1 X435.471 Y336.539 A1624.71521
G1 X435.612 Y336.126 A1624.93293
G1 X435.77 Y335.424 A1625.29193
G1 X392.37 Y292.024 A1655.91297
G1 X392.619 Y291.946 A1656.04315
G1 X393.528 Y291.769 A1656.50517
G1 X436.028 Y334.268 A1686.49086
G1 X436.286 Y333.112 A1687.08178
G1 X394.712 Y291.538 A1716.41448
G1 X395.896 Y291.308 A1717.01622
G1 X436.511 Y331.923 A1745.6723
G1 X436.652 Y330.65 A1746.31129
G1 X397.142 Y291.139 A1774.18808
G1 X398.449 Y291.032 A1774.84233
G1 X436.792 Y329.375 A1801.89538
G1 X436.897 Y328.42 A1802.37471
G1 X436.897 Y328.067 A1802.55082
G1 X399.755 Y290.924 A1828.75686
G1 X400.378 Y290.871 A1829.0688
G1 X401.137 Y290.892 A1829.44761
G1 X436.897 Y326.652 A1854.67822
G1 X436.897 Y325.238 A1855.38367
G1 X402.59 Y290.931 A1879.58911
G1 X404.043 Y290.97 A1880.31427
G1 X436.815 Y323.742 A1903.43669
G1 X436.639 Y322.152 A1904.23479
G1 X405.654 Y291.166 A1926.09673
G1 X407.296 Y291.394 A1926.92379
G1 X436.456 Y320.554 A1947.49774
G1 X436.048 Y318.732 A1948.42926
G1 X409.054 Y291.738 A1967.47498
G1 X410.95 Y292.22 A1968.45099
G1 X435.64 Y316.91 A1985.87112
G1 X435.606 Y316.756 A1985.9498
G1 X434.929 Y314.784 A1986.98999
G1 X413.009 Y292.864 A2002.45574
G1 X415.268 Y293.71 A2003.6592
G1 X434.083 Y312.524 A2016.93384
G1 X432.823 Y309.85 A2018.40859
G1 X418.03 Y295.057 A2028.84585
G1 X419.163 Y295.63 A2029.47929
G1 X422.458 Y297.786 A2031.44381
G1 X425.461 Y300.26 A2033.38496
G1 X428.201 Y303.08 A2035.3466
G1 X430.606 Y306.169 A2037.29972
G1 X430.685 Y306.298 A2037.37519
G1 X422.222 Y297.835 A2043.34629
G0 X421.633 Y297.246
G0 F3600 X370.179 Y307.283
;TYPE:WALL-INNER
G1 F600 X368.263 Y310.827 A2045.35625
G1 X366.744 Y314.56 A2047.36694
G1 X365.64 Y318.472 A2049.39487
G1 X364.985 Y322.403 A2051.38309
G1 X364.759 Y326.443 A2053.40181
G1 X364.982 Y330.477 A2055.41745
G1 X365.645 Y334.454 A2057.42897
G1 X366.74 Y338.335 A2059.4408
G1 X368.261 Y342.074 A2061.45463
G1 X370.172 Y345.608 A2063.45902
G1 X372.459 Y348.907 A2065.46171
G1 X375.119 Y351.964 A2067.48339
G1 X378.091 Y354.703 A2069.49978
G1 X381.315 Y357.074 A2071.49637
G1 X384.818 Y359.1 A2073.51527
G1 X388.527 Y360.728 A2075.53611
G1 X392.377 Y361.932 A2077.54861
G1 X396.329 Y362.702 A2079.55735
G1 X400.345 Y363.035 A2081.56781
G1 X404.368 Y362.926 A2083.57563
G1 X408.371 Y362.371 A2085.59184
G1 X412.286 Y361.38 A2087.60665
G1 X416.043 Y359.974 A2089.60798
G1 X419.648 Y358.15 A2091.62363
G1 X423.038 Y355.935 A2093.64392
G1 X426.131 Y353.39 A2095.64225
G1 X428.956 Y350.486 A2097.66351
G1 X431.424 Y347.315 A2099.66821
G1 X433.539 Y343.876 A2101.68244
G1 X435.264 Y340.226 A2103.69656
G1 X436.577 Y336.399 A2105.7151
G1 X437.461 Y332.442 A2107.73792
G1 X437.899 Y328.477 A2109.7281
G1 X437.899 Y324.429 A2111.74765
G1 X437.458 Y320.449 A2113.74544
G1 X436.571 Y316.485 A2115.77199
G1 X435.272 Y312.699 A2117.76892
G1 X433.545 Y309.037 A2119.78887
G1 X431.429 Y305.597 A2121.80379
G1 X428.959 Y302.424 A2123.8099
G1 X426.14 Y299.523 A2125.82799
G1 X423.054 Y296.981 A2127.82267
G1 X419.663 Y294.763 A2129.8442
G1 X416.051 Y292.935 A2131.86387
G1 X412.299 Y291.53 A2133.86269
G1 X408.392 Y290.537 A2135.87387
G1 X404.362 Y289.979 A2137.90363
G1 X400.356 Y289.87 A2139.90297
G1 X396.334 Y290.204 A2141.91646
G1 X392.38 Y290.974 A2143.92617
G1 X388.532 Y292.177 A2145.93758
G1 X384.836 Y293.798 A2147.95107
G1 X381.347 Y295.812 A2149.96093
G1 X378.083 Y298.208 A2151.98099
G1 X375.132 Y300.924 A2153.9819
G1 X372.471 Y303.979 A2156.00315
G1 X370.653 Y306.599 A2157.59414
G0 X370.179 Y307.283
G0 F3600 X408.584 Y289.554
;TYPE:WALL-OUTER
G1 F510 X404.444 Y288.981 A2159.67928
G1 X400.328 Y288.869 A2161.73352
G1 X396.197 Y289.212 A2163.80158
G1 X392.134 Y290.003 A2165.86667
G1 X388.181 Y291.239 A2167.93299
G1 X384.384 Y292.904 A2170.00145
G1 X380.799 Y294.974 A2172.06675
G1 X377.447 Y297.435 A2174.14139
G1 X374.414 Y300.226 A2176.19774
G1 X371.681 Y303.364 A2178.27382
G1 X369.326 Y306.759 A2180.3352
G1 X367.357 Y310.399 A2182.39986
G1 X365.797 Y314.234 A2184.46539
G1 X364.662 Y318.253 A2186.5489
G1 X363.989 Y322.293 A2188.59224
G1 X363.757 Y326.443 A2190.66592
G1 X363.986 Y330.587 A2192.73652
G1 X364.667 Y334.673 A2194.80316
G1 X365.793 Y338.66 A2196.87008
G1 X367.355 Y342.502 A2198.93922
G1 X369.318 Y346.132 A2200.99808
G1 X371.669 Y349.522 A2203.05627
G1 X374.401 Y352.662 A2205.13277
G1 X377.454 Y355.476 A2207.20423
G1 X380.767 Y357.912 A2209.25581
G1 X384.366 Y359.994 A2211.33016
G1 X388.176 Y361.666 A2213.40595
G1 X392.131 Y362.903 A2215.47337
G1 X396.192 Y363.694 A2217.53749
G1 X400.317 Y364.036 A2219.60252
G1 X404.45 Y363.924 A2221.66524
G1 X408.563 Y363.354 A2223.73683
G1 X412.585 Y362.336 A2225.80669
G1 X416.445 Y360.891 A2227.86297
G1 X420.149 Y359.018 A2229.93373
G1 X423.631 Y356.742 A2232.0091
G1 X426.809 Y354.127 A2234.06236
G1 X429.711 Y351.144 A2236.13865
G1 X432.247 Y347.886 A2238.19845
G1 X434.42 Y344.353 A2240.26778
G1 X436.192 Y340.603 A2242.33702
G1 X437.541 Y336.671 A2244.41094
G1 X438.449 Y332.606 A2246.48896
G1 X438.899 Y328.532 A2248.53385
G1 X438.899 Y324.374 A2250.60828
G1 X438.446 Y320.284 A2252.66127
G1 X437.535 Y316.213 A2254.74253
G1 X436.2 Y312.322 A2256.79484
G1 X434.426 Y308.561 A2258.86947
G1 X432.252 Y305.026 A2260.93991
G1 X429.715 Y301.766 A2263.0008
G1 X426.818 Y298.787 A2265.07392
G1 X423.648 Y296.174 A2267.12347
G1 X420.164 Y293.896 A2269.20022
G1 X416.453 Y292.018 A2271.27522
G1 X412.599 Y290.574 A2273.32852
G1 X409.391 Y289.759 A2274.97984
G0 X408.584 Y289.554
;MESH:NONMESH
G0 F600 X408.584 Y289.554 Z2.4
G0 F3600 X378.72 Y298.979
;TIME_ELAPSED:471.432087
;LAYER:1
;TYPE:FILL
;MESH:simplified piston.STL
G1 F600 X375.847 Y301.622 A2276.92745
G1 X373.26 Y304.594 A2278.89323
G1 X372.225 Y306.086 A2279.79916
G1 X381.017 Y297.294 A2286.00239
G1 X381.908 Y296.641 A2286.55351
G1 X384.695 Y295.03 A2288.15954
G1 X369.987 Y309.738 A2298.53682
G1 X369.169 Y311.247 A2299.39317
G1 X368.674 Y312.465 A2300.04909
G1 X387.358 Y293.782 A2313.23131
G1 X388.856 Y293.124 A2314.04759
G1 X389.692 Y292.862 A2314.48467
G1 X367.705 Y314.849 A2329.99769
G1 X367.143 Y316.824 A2331.02214
G1 X391.75 Y292.218 A2348.38335
G1 X392.621 Y291.946 A2348.83859
G1 X393.636 Y291.746 A2349.35471
G1 X366.605 Y318.777 A2368.42654
G1 X366.321 Y320.475 A2369.28545
G1 X395.395 Y291.402 A2389.79837
G1 X396.42 Y291.201 A2390.31948
G1 X397.063 Y291.147 A2390.64141
G1 X366.038 Y322.172 A2412.53122
G1 X365.974 Y322.555 A2412.72495
G1 X365.91 Y323.714 A2413.30406
G1 X398.607 Y291.018 A2436.37321
G1 X400.15 Y290.889 A2437.1457
G1 X365.827 Y325.212 A2461.36243
G1 X365.76 Y326.422 A2461.96702
G1 X365.774 Y326.679 A2462.09543
G1 X401.551 Y290.903 A2487.33768
G1 X402.929 Y290.939 A2488.02541
G1 X365.847 Y328.02 A2514.18841
G1 X365.92 Y329.361 A2514.85842
G1 X404.301 Y290.98 A2541.93829
G1 X405.544 Y291.151 A2542.56427
G1 X366.026 Y330.67 A2570.44671
G1 X366.228 Y331.882 A2571.05972
G1 X406.787 Y291.323 A2599.67628
G1 X408.03 Y291.494 A2600.30226
G1 X366.431 Y333.093 A2629.6526
G1 X366.632 Y334.306 A2630.26602
G1 X409.171 Y291.767 A2660.27958
G1 X410.299 Y292.054 A2660.86027
G1 X366.95 Y335.402 A2691.44498
G1 X367.262 Y336.505 A2692.01686
G1 X411.427 Y292.339 A2723.17801
G1 X411.999 Y292.485 A2723.47253
G1 X412.507 Y292.675 A2723.74312
G1 X367.573 Y337.608 A2755.44613
G1 X367.687 Y338.011 A2755.65507
G1 X367.947 Y338.648 A2755.99833
G1 X413.535 Y293.061 A2788.16277
G1 X414.563 Y293.446 A2788.71043
G1 X368.355 Y339.654 A2821.31267
G1 X368.764 Y340.66 A2821.85446
G1 X415.597 Y293.827 A2854.89767
G1 X416.537 Y294.301 A2855.42289
G1 X369.176 Y341.662 A2888.83863
G1 X369.672 Y342.58 A2889.3592
G1 X417.477 Y294.775 A2923.08821
G1 X418.417 Y295.25 A2923.61365
G1 X370.168 Y343.498 A2957.65557
G1 X370.665 Y344.416 A2958.17638
G1 X419.334 Y295.747 A2992.51499
G1 X420.189 Y296.306 A2993.02463
G1 X371.182 Y345.312 A3027.60136
G1 X371.762 Y346.147 A3028.10858
G1 X421.045 Y296.864 A3062.8804
G1 X421.9 Y297.423 A3063.39004
G1 X372.341 Y346.982 A3098.35659
G1 X372.92 Y347.818 A3098.86393
G1 X422.727 Y298.01 A3134.00582
G1 X423.503 Y298.648 A3134.50701
G1 X373.531 Y348.62 A3169.76496
G1 X374.19 Y349.376 A3170.26531
G1 X424.279 Y299.287 A3205.6058
G1 X425.055 Y299.925 A3206.107
G1 X374.849 Y350.131 A3241.53004
G1 X375.507 Y350.887 A3242.03007
G1 X425.793 Y300.601 A3277.50956
G1 X426.49 Y301.319 A3278.00879
G1 X376.204 Y351.605 A3313.48828
G1 X376.94 Y352.283 A3313.98753
G1 X427.187 Y302.036 A3349.4395
G1 X427.883 Y302.754 A3349.93839
G1 X377.675 Y352.962 A3385.36284
G1 X378.411 Y353.64 A3385.86209
G1 X428.537 Y303.514 A3421.22869
G1 X429.156 Y304.309 A3421.73136
G1 X379.192 Y354.273 A3456.98366
G1 X380.007 Y354.872 A3457.48828
G1 X429.775 Y305.104 A3492.60229
G1 X430.394 Y305.9 A3493.10536
G1 X380.822 Y355.472 A3528.08108
G1 X381.637 Y356.071 A3528.5857
G1 X430.96 Y306.748 A3563.38574
G1 X431.499 Y307.623 A3563.89845
G1 X382.51 Y356.612 A3598.46284
G1 X383.406 Y357.13 A3598.97918
G1 X432.038 Y308.499 A3633.29133
G1 X432.576 Y309.374 A3633.80379
G1 X384.302 Y357.648 A3667.8637
G1 X385.198 Y358.167 A3668.38029
G1 X433.044 Y310.321 A3702.13823
G1 X433.497 Y311.282 A3702.66827
G1 X386.175 Y358.604 A3736.0565
G1 X387.157 Y359.037 A3736.59193
G1 X433.95 Y312.243 A3769.60728
G1 X434.404 Y313.203 A3770.13708
G1 X388.139 Y359.469 A3802.77989
G1 X388.859 Y359.784 A3803.17197
G1 X389.147 Y359.874 A3803.32251
G1 X434.751 Y314.27 A3835.49859
G1 X435.113 Y315.323 A3836.05411
G1 X390.224 Y360.212 A3867.72573
G1 X391.302 Y360.548 A3868.28906
G1 X435.474 Y316.376 A3899.4548
G1 X435.606 Y316.756 A3899.65549
G1 X435.77 Y317.494 A3900.03266
G1 X392.379 Y360.885 A3930.64736
G1 X392.618 Y360.959 A3930.77218
G1 X393.54 Y361.139 A3931.24085
G1 X436.029 Y318.649 A3961.21949
G1 X436.288 Y319.805 A3961.81052
G1 X394.723 Y361.369 A3991.13651
G1 X395.907 Y361.6 A3991.73835
G1 X436.511 Y320.996 A4020.38667
G1 X436.651 Y322.27 A4021.02609
G1 X397.153 Y361.768 A4048.89407
G1 X398.459 Y361.876 A4049.54786
G1 X436.793 Y323.543 A4076.59421
G1 X436.897 Y324.484 A4077.06654
G1 X436.897 Y324.852 A4077.25013
G1 X399.765 Y361.984 A4103.44876
G1 X400.343 Y362.032 A4103.73812
G1 X401.154 Y362.01 A4104.14288
G1 X436.897 Y326.266 A4129.36185
G1 X436.897 Y327.681 A4130.0678
G1 X402.608 Y361.97 A4154.26054
G1 X404.062 Y361.93 A4154.98622
G1 X436.813 Y329.179 A4178.09382
G92 A0
G1 X436.638 Y330.768 A0.79755
G1 X405.668 Y361.738 A22.64856
G1 X407.311 Y361.51 A23.47611
G1 X436.453 Y332.367 A44.03771
G1 X436.043 Y334.192 A44.97091
G1 X409.074 Y361.161 A63.99899
G1 X410.968 Y360.681 A64.97378
G1 X435.632 Y336.017 A82.37557
G1 X435.598 Y336.167 A82.4523
G1 X434.922 Y338.141 A83.49328
G1 X413.028 Y360.036 A98.94103
G1 X415.285 Y359.193 A100.14304
G1 X434.068 Y340.41 A113.39546
G1 X432.808 Y343.083 A114.86975
G1 X418.069 Y357.823 A125.26927
G1 X419.191 Y357.254 A125.8969
G1 X421.675 Y355.631 A127.37725
G1 X430.66 Y346.646 A133.71666
G1 X430.593 Y346.755 A133.78049
G1 X428.198 Y349.831 A135.72543
G1 X425.463 Y352.644 A137.68283
G1 X423.077 Y354.606 A139.22398
G0 X422.434 Y355.135
G0 F3600 X370.184 Y307.275
;TYPE:WALL-INNER
G1 F600 X368.266 Y310.819 A141.23441
G1 X366.754 Y314.533 A143.235
G1 X365.65 Y318.429 A145.25525
G1 X364.98 Y322.445 A147.28654
G1 X364.759 Y326.421 A149.27323
G1 X364.982 Y330.477 A151.29984
G1 X365.645 Y334.453 A153.31086
G1 X366.74 Y338.335 A155.32317
G1 X368.261 Y342.074 A157.337
G1 X370.178 Y345.619 A159.34764
G1 X372.47 Y348.923 A161.3538
G1 X375.124 Y351.969 A163.36938
G1 X378.092 Y354.704 A165.38295
G1 X381.319 Y357.077 A167.38134
G1 X384.816 Y359.099 A169.39665
G1 X388.505 Y360.721 A171.40714
G1 X392.378 Y361.932 A173.43164
G1 X396.348 Y362.705 A175.44948
G1 X400.322 Y363.034 A177.4389
G1 X404.432 Y362.92 A179.49018
G1 X408.365 Y362.373 A181.47124
G1 X412.287 Y361.38 A183.48968
G1 X416.007 Y359.991 A185.47075
G1 X419.699 Y358.12 A187.53572
G1 X423.025 Y355.945 A189.51837
G1 X426.141 Y353.381 A191.53158
G1 X428.951 Y350.492 A193.54225
G1 X431.42 Y347.322 A195.54687
G1 X433.544 Y343.869 A197.5694
